usr/share/icons/biglinux-icons-material-dark/16/actions/foreign_green.svg

<svg xmlns="http://www.w3.org/2000/svg" viewBox="0 0 16 16">
  <defs id="defs3051">
    <style type="text/css" id="current-color-scheme">
      .ColorScheme-Text {
        color:#dedede;
      }
      .ColorScheme-Highlight {
        color:#3daee9;
      }
      </style>
  </defs>
  <path 
        style="fill:currentColor;fill-opacity:1;stroke:none"
        d="M 5 2 C 4.448 2 4 2.448 4 3 L 4 5 L 2 5 L 2 8 L 3 8 L 3 6 L 13 6 L 13 8 L 14 8 L 14 5 L 12 5 L 12 3 C 12 2.448 11.552 2 11 2 L 5 2 z M 5 3 L 11 3 L 11 5 L 5 5 L 5 3 z M 4.0039062 9 A 1 1 0 0 0 3.0039062 10 A 1 1 0 0 0 4.0039062 11 A 1 1 0 0 0 5.0039062 10 A 1 1 0 0 0 4.0039062 9 z M 2.6835938 12 A 2 2 0 0 0 2.0039062 13.5 L 2.0039062 14 L 6.0039062 14 L 6.0039062 13.5 A 2 2 0 0 0 5.3242188 12 L 2.6835938 12 z "
        class="ColorScheme-Text"
        />
  <path
     style="fill:#42be7f"
     d="M 13.34,9 10.192,12.609 8.668,11.057 8.005,11.732 10.232,14 14.005,9.677 Z"
      />
</svg>

<svg xmlns="http://www.w3.org/2000/svg" viewBox="0 0 16 16">
<defs id="defs3051">
<style id="current-color-scheme" type="text/css">
.ColorScheme-Text{color:#dedede}
</style>
</defs>
<path d="M5 2a1 1 0 0 0-1 1v2H2v3h1V6h10v2h1V5h-2V3a1 1 0 0 0-1-1zm0 1h6v2H5zm-.996 6a1 1 0 0 0-1 1 1 1 0 0 0 1 1 1 1 0 0 0 1-1 1 1 0 0 0-1-1m-1.32 3a2 2 0 0 0-.68 1.5v.5h4v-.5a2 2 0 0 0-.68-1.5z" class="ColorScheme-Text" style="fill:currentColor;fill-opacity:1;stroke:none"/>
<path d="m13.34 9-3.148 3.609-1.524-1.552-.663.675L10.232 14l3.773-4.323Z" style="fill:#42be7f"/>
</svg>
